!!!!SEGMENT: pl-kk--kk-i-382--004-003_anonim--nro-1-agnus.krn
!!!id: 18xx:1459
!!!COM: Anonim
!!!COM-rism: pe30004985
!!!CDT:
!!!CNT:
!!!OTL: Nro 1 Agnus
!!!PDT:
!!!SMS-siglum: PL-Kk
!!!SMS-shelfmark: Kk.I.382
!!!NIFC-rismID: 1001139086
!!!URL-scan: http://repozytorium.nifc.pl/skany/pl-kk-nut--i-382
!!!ONB-nifc: UWAGA: obsada: S (T 1), T 2, A (B 1), B 2; S (T 1): skan 0005; A (B 1): skan 0148-149; T 2: skan 0076; B 2: skan 0219;
!!!SMS-variant:
!!!SMS-altvar:
**kern	**text	**kern	**text	**kern	**text	**kern	**text
*part4	*part4	*part3	*part3	*part2	*part2	*part1	*part1
*staff4	*staff4	*staff3	*staff3	*staff2	*staff2	*staff1	*staff1
*I"Basso II	*	*I"Tenore II	*	*I"Alto vel Basso I	*	*I"Soprano vel. Tenore I.	*
*I'B 2	*	*I'T 2	*	*I'A (B 1)	*	*I'S (T 1)	*
*clefF4	*	*clefC4	*	*clefC3	*	*clefC1	*
*k[]	*	*k[]	*	*k[]	*	*k[]	*
*M3/2	*	*M3/2	*	*M3/2	*	*M3/2	*
=1	=1	=1	=1	=1	=1	=1	=1
*2\right	*	*2\right	*	*2\right	*	*2\right	*
*	*	*	*	*	*	*rscale:1/2	*
!LO:TX:t=P:problem:all\right:global	!	!LO:TX:t=P:problem:all\right:global	!	!LO:TX:t=P:problem:all\right:global	!	!LO:TX:t=P:problem:w źródle pierwsze ogniwo (t. 1-22) zapisane w metrum 3/4, ale w pozostałych głosach ta część zapisana w metrum 3/2	!
!	!	!	!	!LO:TX:t=P:problem:kolejność głosów środkowych w skanach odwrotna: najpierw Tenore z kluczem C4, potem Alto vel Basso I z kluczem C3	!	!LO:TX:t=P:problem:all\right:global	!
!LO:TX:a:t=P:problem:w źródle "Agnus." zapisane przed pierwszym taktem, na pięciolinii	!	!LO:TX:a:t=P:problem:w źródle "Agnus" zapisane przed pierwszym taktem, na pięciolinii	!	!	!	!LO:TX:a:t=P:problem:w źródle "Agnus" zapisane przed pierwszym taktem, na wysokości pięciolinii	!
!LO:TX:a:i:t=Agnus.	!	!LO:TX:a:i:t=Agnus	!	!	!	!LO:TX:a:i:t=Agnus	!
(<2C/	A-	(>2c\	A-	(>2g\	A-	(>2ee\	A-
2D/)	.	2B\)	.	2f\)	.	2dd\)	.
(>4E\	-gnus	2G/	-gnus	2e\	-gnus	2cc\	-gnus
4F\)	.	.	.	.	.	.	.
=2	=2	=2	=2	=2	=2	=2	=2
2G\	De-	2G/	De-	2e\	De-	2cc\	De-
2GG/	-i	2G/	-i	2d\	-i	2b\	-i
2G\	qui	2G/	qui	(>4d\	qui	(>4b\L	qui
.	.	.	.	4e\)	.	4cc\)J	.
=3	=3	=3	=3	=3	=3	=3	=3
1G	tol-	1B	tol-	(>2f\	tol-	(>2dd\	tol-
.	.	.	.	2d\)	.	2b\)	.
2C/	-lis	2G/	-lis	2e\	-lis	2cc\	-lis
=4	=4	=4	=4	=4	=4	=4	=4
2C/	pec-	2c\	pe-	2g\	pec-	2ee\	pec-
!	!	!LO:TX:a:t=a	!	!	!	!	!
2F\	-ca-	2A\	-ca-	2f\	-ca-	2dd\	-ca-
!	!	!LO:TX:a:t=a	!	!	!	!	!
2F#X\	-ta	2A\	-ta	2e\	-ta	2cc\	-ta
=5	=5	=5	=5	=5	=5	=5	=5
2G\	mun-	2G/	mun-	2e\	mun-	2cc\	mun-
2G\	-di	2G/	-di	2d\	-di	2b\	-di
2r	.	2r	.	2r	.	2r	.
!LO:LB:g=original	!	!	!	!	!	!	!
=6	=6	=6	=6	=6	=6	=6	=6
(<2C/	A-	(>2c\	A-	(>2g\	A-	(>2ee\	A-
2D/)	.	2B\)	.	2f\)	.	2dd\)	.
(>4E\	-gnus	2G/	-gnus	2e\	-gnus	2cc\	-gnus
4F\)	.	.	.	.	.	.	.
!	!	!LO:LB:g=original	!	!LO:LB:g=original	!	!LO:LB:g=original	!
=7	=7	=7	=7	=7	=7	=7	=7
2G\	De-	2G/	De-	2e\	De-	2cc\	De-
2GG/	-i	2G/	-i	2d\	-i	2b\	-i
2G\	qui	2G/	qui	(>4d\	qui	(>4b\L	qui
.	.	.	.	4e\)	.	4cc\)J	.
=8	=8	=8	=8	=8	=8	=8	=8
1G	tol-	1B	tol-	(>2f\	tol-	(>2dd\	tol-
.	.	.	.	2d\)	.	2b\)	.
2C/	-lis	2G/	-lis	2e\	-lis	2cc\	-lis
=9	=9	=9	=9	=9	=9	=9	=9
2C/	pec-	2c\	pec-	2g\	pec-	2ee\	pec-
2F\	-ca-	2A\	-ca-	2f\	-ca-	2dd\	-ca-
2F#X\	-ta	2A\	-ta	2e\	-ta	2cc\	-ta
=10	=10	=10	=10	=10	=10	=10	=10
2G\	mun-	2G/	mun-	2e\	mun-	2cc\	mun-
2G\	-di	2G/	-di	2d\	-di	2b\	-di
2r	.	2r	.	2r	.	2r	.
=11	=11	=11	=11	=11	=11	=11	=11
(>2G\	mi-	4d\	mi-	(>2B/	mi-	(>4ff\L	mi-
.	.	4c\	.	.	.	4ee\	.
2B\)	.	4B\	.	2d\)	.	4dd\	.
.	.	4A\	.	.	.	4cc\)J	.
2G\	-se-	4G/	-se-	2f\	-se-	(>4b\L	-se-
.	.	4F/	.	.	.	4a\)J	.
=12	=12	=12	=12	=12	=12	=12	=12
(>2c\	-re-	2E/	-re-	1g	-re-	(>2g/	-re-
2G\)	.	2D/	.	.	.	2f/)	.
2C/	-re	2C/	-re	2g\	-re	2e/	-re
!LO:LB:g=original	!	!LO:LB:g=original	!	!	!	!LO:LB:g=original	!
=13	=13	=13	=13	=13	=13	=13	=13
(>4d\	mi-	2G/	mi-	(>4f\	mi-	(>2b\	mi-
4c\	.	.	.	4e\	.	.	.
4B\	.	2B\	.	4d\	.	2dd\)	.
4A\)	.	.	.	4f\)	.	.	.
(>4G\	-se-	2G/	-se-	(>4e\	-se-	2cc\	-se-
!	!	!	!	!LO:N:vis=4:xstem	!	!	!
4F\)	.	.	.	4d\)	.	.	.
!	!	!	!	!LO:LB:g=original	!	!	!
=14	=14	=14	=14	=14	=14	=14	=14
(>2E\	-re-	2c\	-re-	(>2g\	-re-	1g	-re-
2D\)	.	2B\	.	2f\)	.	.	.
2C/	-re	2G/	-re	2e\	-re	2cc\	-re
=15	=15	=15	=15	=15	=15	=15	=15
(>2F\	no-	2A/	no-	(>2d\	no-	(>2a\	no-
2G\	.	1G	.	2e\	.	2cc\	.
2GG/)	.	.	.	2d\)	.	2b\)	.
=16	=16	=16	=16	=16	=16	=16	=16
1C	-bis	1G	-bis	1e	-bis	1cc	-bis
2r	.	2r	.	2r	.	2r	.
=17	=17	=17	=17	=17	=17	=17	=17
(>2G\	mi-	4d\	mi-	(>2B/	mi-	(>4ff\L	mi-
.	.	4c\	.	.	.	4ee\	.
2B\)	.	4B\	.	2d\)	.	4dd\	.
.	.	4A\	.	.	.	4cc\)J	.
2G\	-se-	4G/	-se-	2f\	-se-	(>4b\L	-se-
.	.	4F/	.	.	.	4a\)J	.
=18	=18	=18	=18	=18	=18	=18	=18
(>2c\	-re-	2E/	-re-	1g	-re-	(<2g/	-re-
2G\)	.	2D/	.	.	.	2f/)	.
2C/	-re	2C/	-re	2g\	-re	2e/	-re
=19	=19	=19	=19	=19	=19	=19	=19
(>4d\	mi-	2G/	mi-	(>4f\	mi-	(>2b\	mi-
4c\	.	.	.	4e\	.	.	.
4B\	.	2B\	.	4d\	.	2dd\)	.
4A\)	.	.	.	4f\)	.	.	.
(>4G\	-se-	2G/	-se-	(>4e\	-se-	2cc\	-se-
4F\)	.	.	.	4d\)	.	.	.
!LO:LB:g=original	!	!LO:LB:g=original	!	!	!	!	!
=20	=20	=20	=20	=20	=20	=20	=20
(>2E\	-re-	2c\	-re-	(>2g\	-re-	1g	-re-
2D\)	.	2B\	.	2f\)	.	.	.
2C/	-re	2G/	-re	2e\	-re	2cc\	-re
!	!	!	!	!	!	!LO:LB:g=original	!
=21	=21	=21	=21	=21	=21	=21	=21
(>2F\	no-	2A/	no-	(>2d\	no-	(>2a\	no-
2G\	.	1G	.	2e\	.	2cc\	.
2GG/)	.	.	.	2d\)	.	2b\)	.
=22	=22	=22	=22	=22	=22	=22	=22
1.C	-bis.	1.G	-bis	1.e	-bis	1.cc	-bis
!LO:LB:g=original	!	!LO:LB:g=original	!	!LO:LB:g=original	!	!	!
==23	==23	==23	==23	==23	==23	==23	==23
*M4/4	*	*M4/4	*	*M4/4	*	*M4/4	*
*met(C.)	*	*met(C.)	*	*met(C.)	*	*met(C.)	*
*	*	*	*	*	*	*rscale:1	*
!LO:TX:a:t=P:problem:w źródle "Agnus" zapisane przed taktem 23, na pięciolinii	!	!	!	!	!	!	!
!LO:TX:a:i:t=Agnus	!	!	!	!	!	!	!
(<4C/	A-	2.G/	A-	2.e\	A-	2.cc\	A-
4E/)	.	.	.	.	.	.	.
(>4G\	-gnus	.	.	.	.	.	.
4c\)	.	4G/	-gnus	4e\	-gnus	4cc\	-gnus
=24	=24	=24	=24	=24	=24	=24	=24
4G\	De-	4G/	De-	(>8e\L	De-	(>8cc\L	De-
.	.	.	.	8d\J)	.	8b\J)	.
4GG/	-i	4G/	-i	4.d\	-i	4b\	-i
2r	.	2r	.	.	.	2r	.
.	.	.	.	8d\yy	.	.	.
.	.	.	.	4r	.	.	.
=25	=25	=25	=25	=25	=25	=25	=25
(>4G\	A-	4B\	A-	2.f\	A-	2.dd\	A-
4A\)	.	4A\	.	.	.	.	.
(>4B\	-gnus	4G/	-gnus	.	.	.	.
4G\)	.	4B/	.	4f\	-gnus	4dd\	-gnus
=26	=26	=26	=26	=26	=26	=26	=26
4c\	De-	4G/	De-	(>8f\L	De-	(>8dd\L	De-
.	.	.	.	8e\J)	.	8cc\J)	.
2C/	-i	2G/	-i	2e\	-i	2cc\	-i
4C/	qui	4c\	qui	4g\	qui	4ee\	qui
=27	=27	=27	=27	=27	=27	=27	=27
(>4.C/	tol-	4.c\	tol-	4.g\	tol-	(>4.ee\	tol-
8BB/)	.	8B\	.	8f\	.	8dd\)	.
!	!	!	!	!	!	!LO:LB:g=original	!
4C/	-lis	4G/	-lis	4e\	-lis	4cc\	-lis
4c\	pec-	4c\	pe-	4g\	pec-	4ee\	pec-
=28	=28	=28	=28	=28	=28	=28	=28
4G\	-ca-	4d\	-ca-	4f\	-ca-	4dd\	-ca-
4G\	-ta	4d\	-ta	4e\	-ta	4cc\	-ta
(>4G\	mun-	2d\	mun-	(>4d\	mun-	(>4b\	mun-
4F#X\)	.	.	.	4e\)	.	4cc\)	.
!LO:LB:g=original	!	!LO:LB:g=original	!	!LO:LB:g=original	!	!	!
=29	=29	=29	=29	=29	=29	=29	=29
!LO:TX:t=P:problem:wyblakły początek taktu	!	!	!	!	!	!	!
2G\yy	-[di]	2d\	-di	2d\	-di	2b\	-di
4r	.	4r	.	4r	.	4r	.
4C/	qui	4c\	qui	4g\	qui	4ee\	qui
=30	=30	=30	=30	=30	=30	=30	=30
(<4.C/	tol-	4.c\	tol-	4.g\	tol-	(>4.ee\	tol-
8BB/)	.	8B\	.	8f\	.	8dd\)	.
4C/	-lis	4G/	-lis	4e\	-lis	4cc\	-lis
4c\	pec-	4c\	pe-	4g\	pec-	4ee\	pec-
=31	=31	=31	=31	=31	=31	=31	=31
4G\	-ca-	4d\	-ca-	4f\	-ca-	4dd\	-ca-
4F#X\	-ta	4d\	-ta	4e\	-ta	4cc\	-ta
(>4G\	mun-	2d\	mun-	(>4d\	mun-	(>4b\	mun-
4F#\)	.	.	.	4e\)	.	4cc\)	.
=32	=32	=32	=32	=32	=32	=32	=32
!LO:TX:a:t=P:problem:w źródle "Seque Dona nobis. V: S:" zapisane za taktem 32, na pięciolinii	!	!	!	!LO:TX:a:t=P:problem:w źródle "Seque Dona nobis" zapisane za taktem 32, na pięciolinii	!	!	!
!LO:TX:b:i:t=Seque Dona nobis. V&colon; S&colon;	!	!	!	!LO:TX:b:i:t=Seque Dona nobis	!	!	!
1G	-di.	1G	-di.	1d	-di.	1b	-di.
!LO:PB:g=original	!	!LO:LB:g=original	!	!LO:PB:g=original	!	!LO:LB:g=original	!
==33	==33	==33	==33	==33	==33	==33	==33
!LO:TX:a:t=P:problem:w źródle "Dona." zapisane przed taktem 33, na pięciolinii	!	!LO:TX:a:t=P:problem:w źródle "Dona." zapisane przed taktem 33, na pięciolinii	!	!LO:TX:a:t=P:problem:w źródle "Dona" zapisane przed taktem 33, na pięciolinii	!	!LO:TX:a:t=P:problem:w źródle "Dona" zapisane przed taktem 33, na wysokości pięciolinii	!
!LO:TX:a:i:t=Dona.	!	!LO:TX:a:i:t=Dona.	!	!LO:TX:a:i:t=Dona	!	!LO:TX:a:i:t=Dona	!
4.C/	Do-	4.c\	Do-	4.g\	Do-	4.ee\	Do-
8D/	-na	8B\	-na	8f\	-na	8dd\	-na
4E\	no-	4G/	no-	4e\	no-	4cc\	no-
4F\	-bis	4G/	-bis	4f\	-bis	4dd\	-bis
=34	=34	=34	=34	=34	=34	=34	=34
4G\	pa-	4G/	pa-	4e\	pa-	4cc\	pa-
4GG/	-cem	4G/	-cem	4d\	-cem	4b\	-cem
2G\	da	2B\	da	2f\	da	2dd\	da
=35	=35	=35	=35	=35	=35	=35	=35
1G	pa-	1B	pa-	(>4f\	pa-	(>4dd\	pa-
.	.	.	.	8e\L	.	8cc\L	.
.	.	.	.	8f\J	.	8dd\J	.
.	.	.	.	4g\	.	4ee\	.
.	.	.	.	4f\)	.	4dd\)	.
=36	=36	=36	=36	=36	=36	=36	=36
2C/	-cem	2G/	-cem	2e\	-cem	2cc\	-cem
4C/	do-	4c\	do-	4g\	do-	4ee\	do-
4E\	-na	4c\	-na	4e\	-na	4cc\	-na
=37	=37	=37	=37	=37	=37	=37	=37
4F\	no-	4c\	no-	4.c\	no-	4.a\	no-
4A\	-bis	4c\	-bis	.	.	.	.
.	.	.	.	8d\	-bis	8b-X\	-bis
!	!	!	!	!	!	!LO:N:vis=4:xstem	!
(>4c\	pa-	2c\	pa-	(<4c/	pa-	4a\	pa-
!	!	!	!	!	!	!LO:N:vis=4:xstem	!
4C/)	.	.	.	4B-X/)	.	4g\	.
!	!	!LO:LB:g=original	!	!LO:LB:g=original	!	!LO:LB:g=original	!
=38	=38	=38	=38	=38	=38	=38	=38
2F\	-cem	2c\	-cem	2A/	-cem	2f/	-cem
4D\	do-	4F#X/	do-	4a\	do-	4dd\	do-
4F#X\	-na	4A\	-na	4f#X\	-na	4dd\	-na
!LO:LB:g=original	!	!	!	!	!	!	!
=39	=39	=39	=39	=39	=39	=39	=39
4G\	no-	4d\	no-	4.d\	no-	4.bn\	no-
4B\	-bis	4d\	-bis	.	.	.	.
.	.	.	.	8e\	-bis	8cc\	-bis
(>4d\	pa-	2d\	pa-	(>4d\	pa-	(>4b\	pa-
4D/)	.	.	.	4c\)	.	4a\)	.
=40	=40	=40	=40	=40	=40	=40	=40
2G\	-cem	2d\	-cem	2Bn/	-cem	2g\	-cem
4G\	do-	4B\	do-	4f\	do-	4dd\	do-
4G\	-na	4B\	-na	4d\	-na	4b\	-na
=41	=41	=41	=41	=41	=41	=41	=41
(>4C/	no-	2.G/	no-	4e\	no-	(>4cc\	no-
4G\)	.	.	.	4f\	-bis	4dd\	.
(>4E\	-bis	.	.	4g\	no-	4ee\)	.
4D\)	.	4A/	-bis	(>8a\L	-bis	(>8ff\L	-bis
.	.	.	.	8f\J)	.	8dd\J)	.
=42	=42	=42	=42	=42	=42	=42	=42
(>4C\	pa-	1G	pa-	(>2e\	pa-	(>2cc\	pa-
4E\)	.	.	.	.	.	.	.
(>4G\	.	.	.	2d\)	.	2bn\)	.
4GG/)	.	.	.	.	.	.	.
!	!	!	!	!	!	!LO:LB:g=original	!
=43	=43	=43	=43	=43	=43	=43	=43
2C/	-cem	2G/	-cem	2e\	-cem	2cc\	-cem
4G\	do-	4B\	do-	4f\	do-	4dd\	do-
4G\	-na	4G/	-na	4d\	-na	4b\	-na
!	!	!	!	!LO:LB:g=original	!	!	!
=44	=44	=44	=44	=44	=44	=44	=44
(>4c\	no-	2.G/	no-	4e\	do-	(>4cc\	no-
4G\)	.	.	.	4f\	-na	4dd\	.
(>4E\	-bis	.	.	4g\	no-	4ee\)	.
4D\)	.	4A/	-bis	(>8a\L	-bis	(>8ff\L	-bis
.	.	.	.	8f\J)	.	8dd\J)	.
=45	=45	=45	=45	=45	=45	=45	=45
(>4C\	pa-	1G	pa-	(>2e\	pa-	(>2cc\	pa-
4E\	.	.	.	.	.	.	.
4G\	.	.	.	2d\)	.	2b\)	.
4GG/)	.	.	.	.	.	.	.
=46	=46	=46	=46	=46	=46	=46	=46
1C	-cem.	1G	-cem.	1e	-cem.	1cc	-cem.
==	==	==	==	==	==	==	==
*-	*-	*-	*-	*-	*-	*-	*-
!!!system-decoration: [(s1,s2,s3,s4)]
!!!RDF**kern: > = above
!!!RDF**kern: < = below
!!!EED: Antoni Szymański
!!!EST: 2021-02-01
!!!ENC: Mateusz Solarz
!!!END: 2021-01-27
